X: 33368
T: Queen Of The Rushes, The
R: jig
M: 6/8
K: Gmajor
dc|BBB GBd|cBc ABc|BBB GBd|cAG FGA|
BBB GBd|cBc ABc|ded cAG|1 AGF G:|2 AGF Gg2||
|:fed efg|afd cAF|GBd gdg|afd d2g|
fed efg|afd cAF|ded cAG|1 AGF Gg2:|2 AGF ABc|
|:d3 gfB|d3 gfB|c3 ABc|ABc ABc|
d3 gfB|d3 gfc|BBB cAF|1 AGF GAB:|2 AGF G3||

